teeny/outline/ngc.svg

<svg width="15" height="15" viewBox="0 0 15 15" fill="none" xmlns="http://www.w3.org/2000/svg">
<path d="M3 3.50001C5.86489 2.22672 9.13511 2.22672 12 3.50001M0.5 6.50001V12.2639C0.5 12.9466 1.05341 13.5 1.73607 13.5C2.20426 13.5 2.63226 13.2355 2.84164 12.8167L3.5 11.5M14.5 6.50001V12.2639C14.5 12.9466 13.9466 13.5 13.2639 13.5C12.7957 13.5 12.3677 13.2355 12.1584 12.8167L11.5 11.5M6 7.50001H9M3.29914 10.9989L1.1489 8.31114C0.728848 7.78607 0.5 7.13367 0.5 6.46126V6.06513C0.5 4.64845 1.64845 3.50001 3.06512 3.50001C4.2104 3.50001 5.21692 4.25923 5.53155 5.36044L6.64856 9.26998C6.86144 10.015 6.60616 10.8151 6.00107 11.2992C5.17205 11.9624 3.96236 11.828 3.29914 10.9989ZM11.7009 10.9989L13.8511 8.31114C14.2712 7.78607 14.5 7.13367 14.5 6.46126V6.06513C14.5 4.64845 13.3516 3.50001 11.9349 3.50001C10.7896 3.50001 9.78308 4.25923 9.46845 5.36044L8.35144 9.26998C8.13856 10.015 8.39384 10.8151 8.99893 11.2992C9.82795 11.9624 11.0376 11.828 11.7009 10.9989Z" stroke="black"/>
</svg>

<svg viewBox="0 0 15 15" xmlns="http://www.w3.org/2000/svg"><path fill="none" stroke="#000" d="M3 3.5c2.86-1.28 6.13-1.28 9 0M.5 6.5v5.76c0 .68.55 1.23 1.23 1.23 .46 0 .89-.27 1.1-.69l.65-1.32m11-5v5.76c0 .68-.56 1.23-1.24 1.23 -.47 0-.9-.27-1.11-.69l-.66-1.32m-5.5-4h3m-5.71 3.49L1.1 8.26C.67 7.73.45 7.08.45 6.41v-.4c0-1.42 1.14-2.57 2.56-2.57 1.14 0 2.15.75 2.46 1.86l1.11 3.9c.21.74-.05 1.54-.65 2.02 -.83.66-2.04.52-2.71-.31Zm8.4 0l2.15-2.69c.42-.53.64-1.18.64-1.85v-.4c0-1.42-1.15-2.57-2.57-2.57 -1.15 0-2.16.75-2.47 1.86L8.29 9.2c-.22.74.04 1.54.64 2.02 .82.66 2.03.52 2.7-.31Z"/></svg>
